material/.icons/material/home-floor-2.svg

<svg xmlns="http://www.w3.org/2000/svg" viewBox="0 0 24 24"><path d="M12 3L2 12h3v8h14v-8h3L12 3M9 8h4a2 2 0 012 2v2a2 2 0 01-2 2h-2v2h4v2H9v-4a2 2 0 012-2h2v-2H9V8z"/></svg>

<?xml version="1.0" encoding="UTF-8"?><!DOCTYPE svg PUBLIC "-//W3C//DTD SVG 1.1//EN" "http://www.w3.org/Graphics/SVG/1.1/DTD/svg11.dtd"><svg xmlns="http://www.w3.org/2000/svg" xmlns:xlink="http://www.w3.org/1999/xlink" version="1.1" id="mdi-home-floor-2" width="24" height="24" viewBox="0 0 24 24"><path d="M12,3L2,12H5V20H19V12H22L12,3M9,8H13A2,2 0 0,1 15,10V12A2,2 0 0,1 13,14H11V16H15V18H9V14A2,2 0 0,1 11,12H13V10H9V8Z" /></svg>
